src/assets/tiger.svg

<?xml version="1.0" encoding="utf-8"?>
<!-- Uploaded to: SVG Repo, www.svgrepo.com, Generator: SVG Repo Mixer Tools -->
<svg width="800px" height="800px" viewBox="0 0 1024 1024" class="icon"  version="1.1" xmlns="http://www.w3.org/2000/svg"><path d="M431.157895 162.250105V134.736842c0-41.552842-39.289263-80.842105-80.842106-80.842105-28.833684 0-57.128421 4.661895-58.314105 4.850526L269.473684 62.490947v83.887158C144.788211 223.824842 89.222737 346.839579 66.991158 431.157895h266.051368c240.747789 0 415.851789 107.789474 415.85179 269.473684-14.848-25.114947-43.924211-53.894737-88.68379-53.894737-67.988211 0-121.263158 71.033263-121.263158 161.684211 0 66.802526 30.477474 119.888842 60.712421 156.16 12.638316 15.171368 36.055579 37.726316 59.014737 58.88 5.066105 0.107789 9.781895 0.538947 15.009685 0.538947 219.297684 0 350.315789-191.811368 350.315789-377.263158C1024 327.545263 679.855158 172.813474 431.157895 162.250105z" fill="#F7C768" /><path d="M673.684211 1024c-114.768842 0-188.820211-33.333895-254.167579-62.787368-53.625263-24.144842-99.974737-45.002105-161.28-45.002106-40.448 0-83.590737 23.255579-103.639579 45.16379l-39.747369-36.432842C142.497684 894.787368 199.168 862.315789 258.236632 862.315789c68.392421 0 119.861895 21.288421 172.921263 45.056V673.684211c0-35.166316-17.542737-64.107789-30.639158-80.815158-15.198316 9.835789-32.067368 18.890105-50.741895 26.947368l-21.342316-49.475368C469.800421 509.413053 485.052632 377.317053 485.052632 323.368421V221.642105A597.827368 597.827368 0 0 0 404.210526 215.578947h-26.947368V134.736842c0-12.099368-14.848-26.947368-26.947369-26.947368-9.377684 0-18.836211 0.592842-26.947368 1.347368V269.473684h-53.894737V211.671579c-136.030316 102.912-158.450526 266.886737-161.306947 295.882105 9.135158 9.108211 38.992842 25.061053 71.976421 38.669474l38.103579-59.365053 12.449684-1.589894C321.212632 473.653895 377.263158 392.192 377.263158 323.368421h53.894737c0 88.333474-68.796632 192.242526-180.870737 213.342316l-48.397474 75.398737-20.291368-7.437474C53.894737 557.756632 53.894737 523.317895 53.894737 512c0-50.041263 37.025684-254.733474 215.578947-365.621895V62.490947l22.528-3.745684C293.187368 58.556632 321.482105 53.894737 350.315789 53.894737c41.552842 0 80.842105 39.289263 80.842106 80.842105v27.513263c248.697263 10.563368 592.842105 165.295158 592.842105 484.486737 0 185.451789-131.018105 377.263158-350.315789 377.263158z m-13.473685-323.368421c-36.513684 0-67.368421 49.367579-67.368421 107.789474 0 85.746526 68.096 145.084632 89.465263 161.549473 91.540211-2.533053 164.378947-45.487158 213.827369-107.654737H700.631579v-53.894736h230.238316c8.919579-17.273263 16.357053-35.354947 22.285473-53.894737h-239.885473l-6.467369-17.650527C706.290526 735.582316 692.439579 700.631579 660.210526 700.631579zM485.052632 931.112421c33.926737 14.066526 70.521263 26.597053 114.607157 33.468632C569.424842 928.309895 538.947368 875.223579 538.947368 808.421053c0-90.650947 53.274947-161.684211 121.263158-161.684211 44.759579 0 73.835789 28.779789 88.68379 53.894737h217.007158c2.775579-17.866105 4.203789-35.920842 4.203789-53.894737 0-38.938947-5.658947-74.752-15.925895-107.627789l-126.706526 126.679579-38.103579-38.103579L932.001684 485.052632a367.939368 367.939368 0 0 0-57.775158-81.596632l-154.543158 154.543158-38.103579-38.103579 153.573053-153.573053a537.869474 537.869474 0 0 0-82.593684-56.751158l-140.665263 140.638316-38.103579-38.103579 128.134737-128.134737A794.731789 794.731789 0 0 0 538.947368 231.046737V323.368421c0 50.149053-11.102316 156.698947-95.932631 236.328421 18.378105 23.417263 42.037895 63.407158 42.037895 113.987369v257.42821zM215.578947 431.157895v-53.894737c39.774316 0 53.894737-29.022316 53.894737-53.894737h53.894737c0 53.571368-37.025684 107.789474-107.789474 107.789474z" fill="#231F20" /></svg>

<?xml version="1.0" encoding="UTF-8" standalone="no"?>
<svg
   width="757.89471"
   height="757.89471"
   viewBox="0 0 970.10523 970.10523"
   class="icon"
   version="1.1"
   id="svg2"
   sodipodi:docname="tiger.svg"
   inkscape:version="1.3.2 (091e20e, 2023-11-25)"
   xmlns:inkscape="http://www.inkscape.org/namespaces/inkscape"
   xmlns:sodipodi="http://sodipodi.sourceforge.net/DTD/sodipodi-0.dtd"
   xmlns="http://www.w3.org/2000/svg"
   xmlns:svg="http://www.w3.org/2000/svg">
  <defs
     id="defs2" />
  <sodipodi:namedview
     id="namedview2"
     pagecolor="#ffffff"
     bordercolor="#000000"
     borderopacity="0.25"
     inkscape:showpageshadow="2"
     inkscape:pageopacity="0.0"
     inkscape:pagecheckerboard="0"
     inkscape:deskcolor="#d1d1d1"
     inkscape:zoom="0.295"
     inkscape:cx="359.32203"
     inkscape:cy="361.01695"
     inkscape:window-width="1312"
     inkscape:window-height="646"
     inkscape:window-x="0"
     inkscape:window-y="25"
     inkscape:window-maximized="0"
     inkscape:current-layer="svg2" />
  <g
     id="g2"
     transform="translate(-53.894737,-53.894737)">
    <path
       d="m 431.15789,162.2501 v -27.51326 c 0,-41.55284 -39.28926,-80.842103 -80.8421,-80.842103 -28.83369,0 -57.12842,4.661895 -58.31411,4.850526 l -22.528,3.745684 V 146.3781 C 144.78821,223.82484 89.222737,346.83958 66.991158,431.15789 H 333.04253 c 240.74778,0 415.85178,107.78948 415.85179,269.47369 -14.848,-25.11495 -43.92422,-53.89474 -88.68379,-53.89474 -67.98822,0 -121.26316,71.03327 -121.26316,161.68421 0,66.80253 30.47747,119.88884 60.71242,156.16 12.63831,15.17137 36.05558,37.72635 59.01474,58.88005 5.0661,0.1077 9.78189,0.5389 15.00968,0.5389 C 892.98189,1024 1024,832.18863 1024,646.73684 1024,327.54526 679.85516,172.81347 431.15789,162.2501 Z"
       fill="#f7c768"
       id="path1" />
    <path
       d="m 673.68421,1024 c -114.76884,0 -188.82021,-33.33389 -254.16758,-62.78737 -53.62526,-24.14484 -99.97474,-45.0021 -161.28,-45.0021 -40.448,0 -83.59074,23.25557 -103.63958,45.16379 l -39.74737,-36.43285 c 27.648,-30.1541 84.31832,-62.62568 143.38695,-62.62568 68.39242,0 119.8619,21.28842 172.92126,45.056 V 673.68421 c 0,-35.16632 -17.54273,-64.10779 -30.63915,-80.81516 -15.19832,9.83579 -32.06737,18.89011 -50.7419,26.94737 l -21.34231,-49.47537 c 141.36589,-60.928 156.6181,-193.024 156.6181,-246.97263 V 221.6421 a 597.82737,597.82737 0 0 0 -80.8421,-6.06315 h -26.94737 v -80.84211 c 0,-12.09937 -14.848,-26.94737 -26.94737,-26.94737 -9.37768,0 -18.83621,0.59285 -26.94737,1.34737 v 160.33684 h -53.89474 v -57.8021 c -136.03031,102.912 -158.45052,266.88674 -161.30694,295.8821 9.13516,9.10822 38.99284,25.06106 71.97642,38.66948 l 38.10358,-59.36505 12.44968,-1.5899 C 321.21263,473.65389 377.26316,392.192 377.26316,323.36842 h 53.89473 c 0,88.33348 -68.79663,192.24253 -180.87073,213.34232 L 201.88968,612.10947 181.59832,604.672 C 53.894737,557.75663 53.894737,523.3179 53.894737,512 c 0,-50.04126 37.025684,-254.73347 215.578943,-365.6219 V 62.490947 l 22.528,-3.745684 c 1.18569,-0.188631 29.48042,-4.850526 58.31411,-4.850526 41.55284,0 80.8421,39.289263 80.8421,80.842103 V 162.2501 C 679.85516,172.81347 1024,327.54526 1024,646.73684 1024,832.18863 892.98189,1024 673.68421,1024 Z M 660.21053,700.63158 c -36.51369,0 -67.36843,49.36758 -67.36843,107.78947 0,85.74653 68.096,145.08464 89.46527,161.54948 91.54021,-2.53306 164.37895,-45.48716 213.82737,-107.65474 H 700.63158 V 808.42105 H 930.8699 c 8.91957,-17.27326 16.35705,-35.35494 22.28547,-53.89473 H 713.2699 l -6.46737,-17.65053 c -0.512,-1.29347 -14.36295,-36.24421 -46.592,-36.24421 z m -175.1579,230.48084 c 33.92674,14.06653 70.52126,26.59705 114.60716,33.46863 -30.23495,-36.27116 -60.71242,-89.35747 -60.71242,-156.16 0,-90.65094 53.27494,-161.68421 121.26316,-161.68421 44.75957,0 73.83578,28.77979 88.68379,53.89474 h 217.00715 c 2.77558,-17.86611 4.20379,-35.92084 4.20379,-53.89474 0,-38.93894 -5.65894,-74.752 -15.92589,-107.62779 L 827.47284,665.78863 789.36926,627.68505 932.00168,485.05263 A 367.93937,367.93937 0 0 0 874.22653,403.456 L 719.68337,557.99916 681.57979,519.89558 835.15284,366.32253 A 537.86947,537.86947 0 0 0 752.55916,309.57137 L 611.8939,450.20968 573.79032,412.10611 701.92505,283.97137 A 794.73179,794.73179 0 0 0 538.94737,231.04674 v 92.32168 c 0,50.14905 -11.10232,156.69895 -95.93263,236.32842 18.3781,23.41727 42.03789,63.40716 42.03789,113.98737 z M 215.57895,431.15789 v -53.89473 c 39.77431,0 53.89473,-29.02232 53.89473,-53.89474 h 53.89474 c 0,53.57137 -37.02568,107.78947 -107.78947,107.78947 z"
       fill="#231f20"
       id="path2" />
  </g>
</svg>
